src/ui/Svg/optimized/proxy.svg

<?xml version="1.0" standalone="no"?>
<!DOCTYPE svg PUBLIC "-//W3C//DTD SVG 1.1//EN" "http://www.w3.org/Graphics/SVG/1.1/DTD/svg11.dtd">
<svg class="icon" version="1.1" viewBox="0 0 1024 1024" fill="currentColor" aria-hidden="true">
  <path d="M921.6 136.533333v307.2h-307.2v-102.4h-136.533333v124.1088l53.623466 53.623467L477.866667 572.689067V682.666667h136.533333v-102.4h307.2v307.2h-307.2v-136.533334h-204.8v-109.9776l-119.466667 119.466667-241.3568-241.322667L290.133333 277.674667l119.466667 119.466666V273.066667h204.8V136.533333h307.2z m-68.266667 512h-170.666666v170.666667h170.666666v-170.666667z m0-443.733333h-170.666666v170.666667h170.666666V204.8z"/>
</svg>

<svg xmlns="http://www.w3.org/2000/svg" class="icon" viewBox="0 0 1024 1024" fill="currentColor" aria-hidden="true">
  <path d="M921.6 136.533v307.2H614.4v-102.4H477.867v124.11l53.623 53.623-53.623 53.623v109.978H614.4v-102.4h307.2v307.2H614.4V750.933H409.6V640.956L290.133 760.422 48.777 519.1l241.356-241.425L409.6 397.14V273.067h204.8V136.533h307.2zm-68.267 512H682.667V819.2h170.666V648.533zm0-443.733H682.667v170.667h170.666V204.8z"/>
</svg>
